OpenMNT_logo_short.svg

<?xml version="1.0" encoding="UTF-8" standalone="no"?>
<!--
  - SPDX-FileCopyrightText: 2023 Peter Hasse <peter.hasse@fokus.fraunhofer.de>
  -  SPDX-FileCopyrightText: 2023 Johann Hackler <johann.hackler@fokus.fraunhofer.de>
  - SPDX-FileCopyrightText: 2023 Fraunhofer FOKUS
  -
  - SPDX-License-Identifier: apache2
  -->

<svg
   width="990"
   height="841"
   overflow="hidden"
   version="1.1"
   id="svg114"
   sodipodi:docname="OpenMNT_logo_short.svg"
   inkscape:version="1.2.2 (b0a8486541, 2022-12-01)"
   xmlns:inkscape="http://www.inkscape.org/namespaces/inkscape"
   xmlns:sodipodi="http://sodipodi.sourceforge.net/DTD/sodipodi-0.dtd"
   xmlns="http://www.w3.org/2000/svg"
   xmlns:svg="http://www.w3.org/2000/svg">
  <sodipodi:namedview
     id="namedview116"
     pagecolor="#ffffff"
     bordercolor="#666666"
     borderopacity="1.0"
     inkscape:showpageshadow="2"
     inkscape:pageopacity="0.0"
     inkscape:pagecheckerboard="0"
     inkscape:deskcolor="#d1d1d1"
     showgrid="false"
     inkscape:zoom="1.2211653"
     inkscape:cx="494.60954"
     inkscape:cy="420.90944"
     inkscape:window-width="2558"
     inkscape:window-height="1357"
     inkscape:window-x="0"
     inkscape:window-y="60"
     inkscape:window-maximized="1"
     inkscape:current-layer="g112" />
  <defs
     id="defs100">
    <clipPath
       id="clip0">
      <rect
         x="1717"
         y="598"
         width="990"
         height="841"
         id="rect76" />
    </clipPath>
    <linearGradient
       x1="2211.67"
       y1="1350.84"
       x2="2211.67"
       y2="987.844"
       gradientUnits="userSpaceOnUse"
       spreadMethod="reflect"
       id="fill1"
       gradientTransform="translate(10.558802,-17.851541)">
      <stop
         offset="0"
         stop-color="#4C4CCC"
         id="stop79" />
      <stop
         offset="0.18"
         stop-color="#4C4CCC"
         id="stop81" />
      <stop
         offset="1"
         stop-color="#8E2DE2"
         id="stop83" />
    </linearGradient>
    <linearGradient
       x1="2200"
       y1="1042"
       x2="2200"
       y2="598"
       gradientUnits="userSpaceOnUse"
       spreadMethod="reflect"
       id="fill2"
       gradientTransform="translate(10.558802,-17.851541)">
      <stop
         offset="0"
         stop-color="#4C4CCC"
         id="stop86" />
      <stop
         offset="0.15"
         stop-color="#4C4CCC"
         id="stop88" />
      <stop
         offset="1"
         stop-color="#8E2DE2"
         id="stop90" />
    </linearGradient>
    <linearGradient
       x1="2200"
       y1="1042"
       x2="2200"
       y2="598"
       gradientUnits="userSpaceOnUse"
       spreadMethod="reflect"
       id="fill3"
       gradientTransform="translate(10.558802,-17.851541)">
      <stop
         offset="0"
         stop-color="#4C4CCC"
         id="stop93" />
      <stop
         offset="0.15"
         stop-color="#4C4CCC"
         id="stop95" />
      <stop
         offset="1"
         stop-color="#8E2DE2"
         id="stop97" />
    </linearGradient>
  </defs>
  <g
     clip-path="url(#clip0)"
     transform="translate(-1727.5588,-580.14846)"
     id="g112">
    <path
       d="m 1883.92,1089.62 c -22.29,0 -40.39,8.04 -54.3,24.12 -13.91,16.07 -20.86,37.18 -20.86,63.32 0,26.14 6.78,47.17 20.34,63.1 13.56,15.93 31.24,23.89 53.04,23.89 23.28,0 41.63,-7.59 55.04,-22.78 13.41,-15.19 20.12,-36.44 20.12,-63.77 0,-28.01 -6.51,-49.66 -19.53,-64.95 -13.02,-15.28 -30.97,-22.93 -53.85,-22.93 z m 617.96,-18.94 h 147.21 v 22.49 h -61.25 v 189.67 h -24.86 v -189.67 h -61.1 z m -205.25,0 h 32.25 l 106.23,166.45 c 4.44,6.9 7.3,11.64 8.58,14.2 h 0.59 c -0.99,-6.11 -1.48,-16.52 -1.48,-31.22 v -149.43 h 24.86 v 212.16 h -30.48 l -109.19,-169.1 c -2.76,-4.24 -5.03,-8.68 -6.8,-13.32 h -0.89 c 0.79,4.54 1.18,14.25 1.18,29.15 v 153.27 h -24.85 z m -272,0 h 32.84 l 65.1,147.95 c 5.03,11.35 8.28,19.83 9.76,25.45 h 0.89 c 4.24,-11.64 7.65,-20.32 10.21,-26.04 l 66.43,-147.36 h 31.07 v 212.16 h -24.71 v -142.32 c 0,-11.25 0.69,-25.01 2.07,-41.28 h -0.59 c -2.37,9.57 -4.49,16.42 -6.36,20.56 l -72.5,163.04 h -12.13 l -72.34,-161.85 c -2.08,-4.74 -4.2,-11.99 -6.37,-21.75 h -0.59 c 0.79,8.48 1.19,22.34 1.19,41.57 v 142.03 h -23.97 z m -138.94,-3.55 c 29.3,0 52.89,9.87 70.8,29.59 17.9,19.73 26.85,45.52 26.85,77.38 0,34.62 -9.17,61.99 -27.52,82.11 -18.34,20.12 -42.9,30.18 -73.68,30.18 -30.08,0 -54.17,-9.91 -72.27,-29.73 -18.1,-19.83 -27.15,-45.62 -27.15,-77.38 0,-34.13 9.22,-61.35 27.67,-81.67 18.44,-20.32 43.54,-30.48 75.3,-30.48 z"
       fill="url(#fill1)"
       fill-rule="evenodd"
       id="path102"
       style="fill:url(#fill1)" />
    <text
       fill="#000000"
       fill-opacity="0"
       font-family="Arial, Arial_MSFontService, sans-serif"
       font-size="219.261px"
       x="1782.72"
       y="1258.99"
       id="text104">OMNT</text>
    <text
       fill="#767171"
       font-family="'Segoe UI', 'Segoe UI_MSFontService', sans-serif"
       font-weight="400"
       font-size="73px"
       id="text106"
       x="1736.6688"
       y="1386.71">OpenMobileNetworkToolkit</text>
    <path
       d="m 2010.67,630.627 c -104.56,104.631 -104.57,274.28 -0.02,378.923 0.01,0.01 0.02,0.01 0.02,0.02 7.34,7.6 7.13,19.72 -0.47,27.06 -7.41,7.16 -19.16,7.16 -26.57,0 -119.5,-119.581 -119.51,-313.466 -0.01,-433.054 0,-0.003 0.01,-0.007 0.01,-0.011 7.6,-7.343 19.71,-7.132 27.04,0.471 7.16,7.416 7.16,19.175 0,26.591 z m 81.17,81.223 c -59.73,59.789 -59.73,156.706 0,216.494 7.48,7.483 7.48,19.617 0,27.1 -7.48,7.483 -19.6,7.483 -27.08,0 -74.7,-74.73 -74.71,-195.908 -0.04,-270.658 0.01,-0.012 0.03,-0.024 0.04,-0.036 7.48,-7.483 19.6,-7.483 27.08,0 7.48,7.484 7.48,19.617 0,27.1 z m 216.34,-27.1 c 7.46,-7.483 19.57,-7.499 27.05,-0.034 0.01,0.011 0.02,0.023 0.03,0.034 74.7,74.73 74.71,195.908 0.04,270.659 -0.02,0.012 -0.03,0.023 -0.04,0.035 -7.48,7.483 -19.6,7.483 -27.08,0 -7.48,-7.483 -7.48,-19.617 0,-27.1 59.73,-59.788 59.73,-156.705 0,-216.494 -7.48,-7.464 -7.49,-19.582 -0.03,-27.066 0.01,-0.011 0.02,-0.022 0.03,-0.034 z m 81.17,-81.146 c 7.46,-7.472 19.57,-7.472 27.04,0 119.48,119.581 119.48,313.445 0,433.026 -7.6,7.34 -19.71,7.13 -27.04,-0.47 -7.16,-7.42 -7.16,-19.17 0,-26.59 104.56,-104.632 104.57,-274.282 0.02,-378.923 -0.01,-0.007 -0.02,-0.014 -0.02,-0.02 -7.47,-7.474 -7.47,-19.588 0,-27.062 z"
       fill="url(#fill2)"
       fill-rule="evenodd"
       id="path108"
       style="fill:url(#fill2)" />
    <path
       d="m 2276,820.5 c 0,42.25 -34.03,76.5 -76,76.5 -41.97,0 -76,-34.25 -76,-76.5 0,-42.25 34.03,-76.5 76,-76.5 41.97,0 76,34.25 76,76.5 z"
       fill="url(#fill3)"
       fill-rule="evenodd"
       id="path110"
       style="fill:url(#fill3)" />
  </g>
</svg>

<!--
  - SPDX-FileCopyrightText: 2023 Peter Hasse <peter.hasse@fokus.fraunhofer.de>
  -  SPDX-FileCopyrightText: 2023 Johann Hackler <johann.hackler@fokus.fraunhofer.de>
  - SPDX-FileCopyrightText: 2023 Fraunhofer FOKUS
  -
  - SPDX-License-Identifier: apache2
  -->

<svg width="990" height="841" xmlns="http://www.w3.org/2000/svg" xmlns:xlink="http://www.w3.org/1999/xlink" overflow="hidden"><defs><clipPath id="clip0"><rect x="1717" y="598" width="990" height="841"/></clipPath><linearGradient x1="2211.67" y1="1350.84" x2="2211.67" y2="987.844" gradientUnits="userSpaceOnUse" spreadMethod="reflect" id="fill1"><stop offset="0" stop-color="#4C4CCC"/><stop offset="0.18" stop-color="#4C4CCC"/><stop offset="1" stop-color="#8E2DE2"/></linearGradient><linearGradient x1="2200" y1="1042" x2="2200" y2="598" gradientUnits="userSpaceOnUse" spreadMethod="reflect" id="fill2"><stop offset="0" stop-color="#4C4CCC"/><stop offset="0.15" stop-color="#4C4CCC"/><stop offset="1" stop-color="#8E2DE2"/></linearGradient><linearGradient x1="2200" y1="1042" x2="2200" y2="598" gradientUnits="userSpaceOnUse" spreadMethod="reflect" id="fill3"><stop offset="0" stop-color="#4C4CCC"/><stop offset="0.15" stop-color="#4C4CCC"/><stop offset="1" stop-color="#8E2DE2"/></linearGradient></defs><g clip-path="url(#clip0)" transform="translate(-1717 -598)"><path d="M1883.92 1089.62C1861.63 1089.62 1843.53 1097.66 1829.62 1113.74 1815.71 1129.81 1808.76 1150.92 1808.76 1177.06 1808.76 1203.2 1815.54 1224.23 1829.1 1240.16 1842.66 1256.09 1860.34 1264.05 1882.14 1264.05 1905.42 1264.05 1923.77 1256.46 1937.18 1241.27 1950.59 1226.08 1957.3 1204.83 1957.3 1177.5 1957.3 1149.49 1950.79 1127.84 1937.77 1112.55 1924.75 1097.27 1906.8 1089.62 1883.92 1089.62ZM2501.88 1070.68 2649.09 1070.68 2649.09 1093.17 2587.84 1093.17 2587.84 1282.84 2562.98 1282.84 2562.98 1093.17 2501.88 1093.17ZM2296.63 1070.68 2328.88 1070.68 2435.11 1237.13C2439.55 1244.03 2442.41 1248.77 2443.69 1251.33L2444.28 1251.33C2443.29 1245.22 2442.8 1234.81 2442.8 1220.11L2442.8 1070.68 2467.66 1070.68 2467.66 1282.84 2437.18 1282.84 2327.99 1113.74C2325.23 1109.5 2322.96 1105.06 2321.19 1100.42L2320.3 1100.42C2321.09 1104.96 2321.48 1114.67 2321.48 1129.57L2321.48 1282.84 2296.63 1282.84ZM2024.63 1070.68 2057.47 1070.68 2122.57 1218.63C2127.6 1229.98 2130.85 1238.46 2132.33 1244.08L2133.22 1244.08C2137.46 1232.44 2140.87 1223.76 2143.43 1218.04L2209.86 1070.68 2240.93 1070.68 2240.93 1282.84 2216.22 1282.84 2216.22 1140.52C2216.22 1129.27 2216.91 1115.51 2218.29 1099.24L2217.7 1099.24C2215.33 1108.81 2213.21 1115.66 2211.34 1119.8L2138.84 1282.84 2126.71 1282.84 2054.37 1120.99C2052.29 1116.25 2050.17 1109 2048 1099.24L2047.41 1099.24C2048.2 1107.72 2048.6 1121.58 2048.6 1140.81L2048.6 1282.84 2024.63 1282.84ZM1885.69 1067.13C1914.99 1067.13 1938.58 1077 1956.49 1096.72 1974.39 1116.45 1983.34 1142.24 1983.34 1174.1 1983.34 1208.72 1974.17 1236.09 1955.82 1256.21 1937.48 1276.33 1912.92 1286.39 1882.14 1286.39 1852.06 1286.39 1827.97 1276.48 1809.87 1256.66 1791.77 1236.83 1782.72 1211.04 1782.72 1179.28 1782.72 1145.15 1791.94 1117.93 1810.39 1097.61 1828.83 1077.29 1853.93 1067.13 1885.69 1067.13Z" fill="url(#fill1)" fill-rule="evenodd"/><text fill="#000000" fill-opacity="0" font-family="Arial,Arial_MSFontService,sans-serif" font-size="219.261" x="1782.72" y="1258.99">OMNT</text><text fill="#767171" font-family="Segoe UI,Segoe UI_MSFontService,sans-serif" font-weight="400" font-size="73" transform="matrix(1 0 0 1 1761.63 1379)">OpenMobileNetworkToolkit</text><path d="M2010.67 630.627C1906.11 735.258 1906.1 904.907 2010.65 1009.55 2010.66 1009.56 2010.67 1009.56 2010.67 1009.57 2018.01 1017.17 2017.8 1029.29 2010.2 1036.63 2002.79 1043.79 1991.04 1043.79 1983.63 1036.63 1864.13 917.049 1864.12 723.164 1983.62 603.576 1983.62 603.573 1983.63 603.569 1983.63 603.565 1991.23 596.222 2003.34 596.433 2010.67 604.036 2017.83 611.452 2017.83 623.211 2010.67 630.627ZM2091.84 711.85C2032.11 771.639 2032.11 868.556 2091.84 928.344 2099.32 935.827 2099.32 947.961 2091.84 955.444 2084.36 962.927 2072.24 962.927 2064.76 955.444 1990.06 880.714 1990.05 759.536 2064.72 684.786 2064.73 684.774 2064.75 684.762 2064.76 684.75 2072.24 677.267 2084.36 677.267 2091.84 684.75 2099.32 692.234 2099.32 704.367 2091.84 711.85ZM2308.18 684.75C2315.64 677.267 2327.75 677.251 2335.23 684.716 2335.24 684.727 2335.25 684.739 2335.26 684.75 2409.96 759.48 2409.97 880.658 2335.3 955.409 2335.28 955.421 2335.27 955.432 2335.26 955.444 2327.78 962.927 2315.66 962.927 2308.18 955.444 2300.7 947.961 2300.7 935.827 2308.18 928.344 2367.91 868.556 2367.91 771.639 2308.18 711.85 2300.7 704.386 2300.69 692.268 2308.15 684.784 2308.16 684.773 2308.17 684.762 2308.18 684.75ZM2389.35 603.604C2396.81 596.132 2408.92 596.132 2416.39 603.604 2535.87 723.185 2535.87 917.049 2416.39 1036.63 2408.79 1043.97 2396.68 1043.76 2389.35 1036.16 2382.19 1028.74 2382.19 1016.99 2389.35 1009.57 2493.91 904.938 2493.92 735.288 2389.37 630.647 2389.36 630.64 2389.35 630.633 2389.35 630.627 2381.88 623.153 2381.88 611.039 2389.35 603.565Z" fill="url(#fill2)" fill-rule="evenodd"/><path d="M2276 820.5C2276 862.75 2241.97 897 2200 897 2158.03 897 2124 862.75 2124 820.5 2124 778.25 2158.03 744 2200 744 2241.97 744 2276 778.25 2276 820.5Z" fill="url(#fill3)" fill-rule="evenodd"/></g></svg>
